X:10
T:Back Home Schottische
R:schottis
C:Bruce Osborne - July 2002
Z:bosborne@kos.net
M:2/4
L:1/8
K:Eb
B,/D/|EE/G/ F/E/D/F/|E/G/B/c/ B/G/E/G/|F/E/F/G/ A/c/B/A/|G/F/G/A/ B/A/G/F/|
EE/G/ F/E/D/F/|E/G/B/c/ B/G/E/G/|F/E/F/G/ A/c/B/A/|G/E/F/D/ E:|
|:G/B/|ee e/B/G/B/|e/d/c/B/ A/G/F/E/|F/E/F/G/ A/c/B/A/|G/F/G/A/ BG/B/|
ee e/B/G/B/|e/d/c/B/ A/G/F/E/|F/E/F/G/ A/c/B/A/|G/E/F/D/ E:|
